outputs/icons/navigation/first_page_round.svg

<svg xmlns="http://www.w3.org/2000/svg" width="1200" height="1200" fill="none"><path fill="#000" d="M885 794.5 691 600l194.5-194.5c19.5-19.5 19.5-51 0-70.5s-51-19.5-70.5 0L585.5 564.5c-19.5 19.5-19.5 51 0 70.5L815 864.5c19.5 19.5 51 19.5 70.5 0 19-19 19-51-.5-70M350 300c27.5 0 50 22.5 50 50v500c0 27.5-22.5 50-50 50s-50-22.5-50-50V350c0-27.5 22.5-50 50-50"/></svg>

<svg width="1200" height="1200" viewBox="0 0 1200 1200" fill="none" xmlns="http://www.w3.org/2000/svg"><path d="M885 794.5L691 600L885.5 405.5C905 386 905 354.5 885.5 335C866 315.5 834.5 315.5 815 335L585.5 564.5C566 584 566 615.5 585.5 635L815 864.5C834.5 884 866 884 885.5 864.5C904.5 845.5 904.5 813.5 885 794.5ZM350 300C377.5 300 400 322.5 400 350V850C400 877.5 377.5 900 350 900C322.5 900 300 877.5 300 850V350C300 322.5 322.5 300 350 300Z" fill="#1D1E23"/></svg>
